web/src/lib/icons/line-weight.svg

<svg xmlns="http://www.w3.org/2000/svg" viewBox="0 0 409 288"><g fill="none" stroke-width="2"><path stroke="#b56d73" d="M362.06 140.17q-8.31-5.25-17.37-9.1c-7.3-3.11-14.17-4.09-22.04-4.48" vector-effect="non-scaling-stroke"/><path stroke="#d08a14" d="M344.35 188.37q-1.46-2.5-4.05-4.39c-4.13-3.01-8.99-5.6-13.39-7.53q-10.81-4.75-22.61-2.09" vector-effect="non-scaling-stroke"/></g><path fill="#6d1fe3" d="M362.06 140.17q-8.31-5.25-17.37-9.1c-7.3-3.11-14.17-4.09-22.04-4.48q.68-3.55 1.2-5.28 12.49-41.39 27.14-86.92 3.6-11.19 4.71-13.37c4.57-8.96 13.36-15.33 23.57-15.34q17-.03 23.19 14.03c3.38 7.7 2.56 15.4-.52 22.89q-3.46 8.41-6.74 16.46-15.68 38.43-30.41 75.02-1.17 2.93-2.73 6.09"/><path fill="currentColor" d="m270.13 24.47.16.29a2.37 2.37 0 0 1-1.21 3.4c-6.12 2.32-12.25 5.8-17.54 7.61-4.09 1.4-10.62 4.07-14.18 5.19q-36.35 11.43-74.63 4.33-9.27-1.73-23.64-6.52-11.17-3.72-23.58-6.75-3.64-.89-13.97-2.18c-14.2-1.77-29.5.32-42.77 4.43-9.04 2.8-19.93 7.75-27.87 10.94a2.49 2.49 0 0 1-3.3-1.56l-.03-.11a2.94 2.93-20.2 0 1 1.66-3.59q15.31-6.44 29.19-10.77 12.95-4.03 24.33-4.95 5.57-.45 20.5.52 3.32.22 15.67 2.95c9.02 2 18.87 5.17 26.71 7.77 10.32 3.43 22.35 5.55 32.06 6.87 13.1 1.77 26.38.62 40.62-1.79 16.74-2.83 32.28-9.85 47.85-17.3a3.07 3.06-27.9 0 1 3.97 1.22M23.1 101.7l-.06-.17a4.59 4.59 0 0 1 2.77-5.77q7.54-2.78 23.2-8.48 7.84-2.86 18.94-5.1 21.13-4.27 42.72.1c7.91 1.6 15.12 4.23 22.9 6.43q2.19.62 16.63 6.1c3.15 1.2 10.29 2.51 16.21 3.74 20.94 4.34 43.61 2.09 63.64-4.04q11-3.37 26.92-11.07a3.95 3.94 64.2 0 1 5.27 1.84l.07.15a3.82 3.82 0 0 1-1.83 5.12q-.93.43-13.9 5.96c-25.74 10.99-54.25 14.63-81.83 9.79q-9.16-1.61-21.97-5.91-20.09-6.74-21.63-7.26-3.14-1.07-15.96-3.59-5.96-1.17-12.93-1.16-9.48.01-13.05.29c-7.2.58-13.41 2.43-22.39 4.99q-4.18 1.18-9.64 3.33-8.86 3.49-18.4 7.34a4.3 4.29 69.8 0 1-5.68-2.63"/><path fill="#fdba02" d="M322.65 126.59c7.87.39 14.74 1.37 22.04 4.48q9.06 3.85 17.37 9.1 3.65 4.44 1.63 9.72-6.38 16.67-12.27 33.5-1.76 5.03-7.07 4.98-1.46-2.5-4.05-4.39c-4.13-3.01-8.99-5.6-13.39-7.53q-10.81-4.75-22.61-2.09-3.39-4.59-1.35-10.17 4.04-11 9.95-28.09 1.71-4.93 3.2-6.55 2.5-2.71 6.55-2.96"/><path fill="currentColor" d="M18.7 156.64q1.42-1.86 4.17-3.02 11.12-4.7 25.4-9.37c16-5.23 33.16-7.97 49.65-5.98q11.25 1.36 19.51 3.85 9.02 2.72 27.4 9.54 30.49 11.3 62.02 5.27c13-2.49 24.54-7.32 36.93-13.63q2.38-1.22 5.7-1.32c7.01-.22 9.93 7.7 6.24 12.99q-1.2 1.72-4.84 2.88-2.43.78-9.39 3.96c-7.7 3.51-18.33 6.47-24.72 8.23q-1.39.38-9.64 1.83-26.34 4.64-51.68-1.5-6.63-1.6-17.02-5.46-5.36-2-16.86-5.98-9.67-3.35-22.17-5.03-23.86-3.19-47.57 5.97-13.62 5.26-20.27 8.21c-4.14 1.84-8.1 2.64-11.58-.04-3.69-2.83-4.06-7.78-1.28-11.4"/><path fill="#a25925" d="M344.35 188.37q5.61 11.32 6.12 19.89 1.17 19.84-8.47 36.77c-9.18 16.13-26.91 27.85-44.99 32.73q-10.93 2.95-21.39 3.2c-4.54.11-26.06.53-25.95-6.34q.05-3.01 2.05-4.18 5.81-3.37 7.23-4.96 6.7-7.47 9.05-16.23c1.43-5.32 2.37-12.47 2.35-18.08-.02-4.66.06-9.74.69-13.9q3.64-23.96 23.72-38 2.34-1.63 9.54-4.91 11.8-2.66 22.61 2.09c4.4 1.93 9.26 4.52 13.39 7.53q2.59 1.89 4.05 4.39"/><path fill="currentColor" d="M11.49 242.47c-9.8-7.24-5.67-21.91 4.98-25.74 12.93-4.66 27.61-10.23 41.88-13.4q24.5-5.47 49.53-.47c7.6 1.52 18.32 5.1 27.88 8.82 15.26 5.95 31.77 9.7 47.72 8.74q11.51-.68 26.88-4.98c6.76-1.89 14.82-5.4 21.12-7.95 5.23-2.12 10.42-1.84 15.02 1.57q7.45 5.51 4.46 15.53c-1.51 5.07-4.35 7.21-9.62 9.27q-17.04 6.65-28.01 9.71-33.23 9.25-66.23 1.06-8.69-2.15-26.64-9.2-10.15-3.98-15.99-5.16-9.15-1.85-16.78-2.14c-14.68-.57-29.53 3.1-43.57 8.47q-13.82 5.3-14.89 5.85c-6.9 3.54-12 4.26-17.74.02"/></svg>

<svg xmlns="http://www.w3.org/2000/svg" version="1.1" viewBox="0.00 0.00 409.00 288.00">
<g stroke-width="2.00" fill="none" stroke-linecap="butt">
<path stroke="#b56d73" vector-effect="non-scaling-stroke" d="
  M 362.06 140.17
  Q 353.75 134.92 344.69 131.07
  C 337.39 127.96 330.52 126.98 322.65 126.59"
/>
<path stroke="#d08a14" vector-effect="non-scaling-stroke" d="
  M 344.35 188.37
  Q 342.89 185.87 340.30 183.98
  C 336.17 180.97 331.31 178.38 326.91 176.45
  Q 316.10 171.70 304.30 174.36"
/>
</g>
<path fill="#6d1fe3" d="
  M 362.06 140.17
  Q 353.75 134.92 344.69 131.07
  C 337.39 127.96 330.52 126.98 322.65 126.59
  Q 323.33 123.04 323.85 121.31
  Q 336.34 79.92 350.99 34.39
  Q 354.59 23.20 355.70 21.02
  C 360.27 12.06 369.06 5.69 379.27 5.68
  Q 396.27 5.65 402.46 19.71
  C 405.84 27.41 405.02 35.11 401.94 42.60
  Q 398.48 51.01 395.20 59.06
  Q 379.52 97.49 364.79 134.08
  Q 363.62 137.01 362.06 140.17
  Z"
/>
<path fill="currentColor" d="
  M 270.13 24.47
  L 270.29 24.76
  A 2.37 2.37 0.0 0 1 269.08 28.16
  C 262.96 30.48 256.83 33.96 251.54 35.77
  C 247.45 37.17 240.92 39.84 237.36 40.96
  Q 201.01 52.39 162.73 45.29
  Q 153.46 43.56 139.09 38.77
  Q 127.92 35.05 115.51 32.02
  Q 111.87 31.13 101.54 29.84
  C 87.34 28.07 72.04 30.16 58.77 34.27
  C 49.73 37.07 38.84 42.02 30.90 45.21
  A 2.49 2.49 0.0 0 1 27.60 43.65
  L 27.57 43.54
  A 2.94 2.93 -20.2 0 1 29.23 39.95
  Q 44.54 33.51 58.42 29.18
  Q 71.37 25.15 82.75 24.23
  Q 88.32 23.78 103.25 24.75
  Q 106.57 24.97 118.92 27.70
  C 127.94 29.70 137.79 32.87 145.63 35.47
  C 155.95 38.90 167.98 41.02 177.69 42.34
  C 190.79 44.11 204.07 42.96 218.31 40.55
  C 235.05 37.72 250.59 30.70 266.16 23.25
  A 3.07 3.06 -27.9 0 1 270.13 24.47
  Z"
/>
<path fill="currentColor" d="
  M 23.10 101.70
  L 23.04 101.53
  A 4.59 4.59 0.0 0 1 25.81 95.76
  Q 33.35 92.98 49.01 87.28
  Q 56.85 84.42 67.95 82.18
  Q 89.08 77.91 110.67 82.28
  C 118.58 83.88 125.79 86.51 133.57 88.71
  Q 135.76 89.33 150.20 94.81
  C 153.35 96.01 160.49 97.32 166.41 98.55
  C 187.35 102.89 210.02 100.64 230.05 94.51
  Q 241.05 91.14 256.97 83.44
  A 3.95 3.94 64.2 0 1 262.24 85.28
  L 262.31 85.43
  A 3.82 3.82 0.0 0 1 260.48 90.55
  Q 259.55 90.98 246.58 96.51
  C 220.84 107.50 192.33 111.14 164.75 106.30
  Q 155.59 104.69 142.78 100.39
  Q 122.69 93.65 121.15 93.13
  Q 118.01 92.06 105.19 89.54
  Q 99.23 88.37 92.26 88.38
  Q 82.78 88.39 79.21 88.67
  C 72.01 89.25 65.80 91.10 56.82 93.66
  Q 52.64 94.84 47.18 96.99
  Q 38.32 100.48 28.78 104.33
  A 4.30 4.29 69.8 0 1 23.10 101.70
  Z"
/>
<path fill="#fdba02" d="
  M 322.65 126.59
  C 330.52 126.98 337.39 127.96 344.69 131.07
  Q 353.75 134.92 362.06 140.17
  Q 365.71 144.61 363.69 149.89
  Q 357.31 166.56 351.42 183.39
  Q 349.66 188.42 344.35 188.37
  Q 342.89 185.87 340.30 183.98
  C 336.17 180.97 331.31 178.38 326.91 176.45
  Q 316.10 171.70 304.30 174.36
  Q 300.91 169.77 302.95 164.19
  Q 306.99 153.19 312.90 136.10
  Q 314.61 131.17 316.10 129.55
  Q 318.60 126.84 322.65 126.59
  Z"
/>
<path fill="currentColor" d="
  M 18.70 156.64
  Q 20.12 154.78 22.87 153.62
  Q 33.99 148.92 48.27 144.25
  C 64.27 139.02 81.43 136.28 97.92 138.27
  Q 109.17 139.63 117.43 142.12
  Q 126.45 144.84 144.83 151.66
  Q 175.32 162.96 206.85 156.93
  C 219.85 154.44 231.39 149.61 243.78 143.30
  Q 246.16 142.08 249.48 141.98
  C 256.49 141.76 259.41 149.68 255.72 154.97
  Q 254.52 156.69 250.88 157.85
  Q 248.45 158.63 241.49 161.81
  C 233.79 165.32 223.16 168.28 216.77 170.04
  Q 215.38 170.42 207.13 171.87
  Q 180.79 176.51 155.45 170.37
  Q 148.82 168.77 138.43 164.91
  Q 133.07 162.91 121.57 158.93
  Q 111.90 155.58 99.40 153.90
  Q 75.54 150.71 51.83 159.87
  Q 38.21 165.13 31.56 168.08
  C 27.42 169.92 23.46 170.72 19.98 168.04
  C 16.29 165.21 15.92 160.26 18.70 156.64
  Z"
/>
<path fill="#a25925" d="
  M 344.35 188.37
  Q 349.96 199.69 350.47 208.26
  Q 351.64 228.10 342.00 245.03
  C 332.82 261.16 315.09 272.88 297.01 277.76
  Q 286.08 280.71 275.62 280.96
  C 271.08 281.07 249.56 281.49 249.67 274.62
  Q 249.72 271.61 251.72 270.44
  Q 257.53 267.07 258.95 265.48
  Q 265.65 258.01 268.00 249.25
  C 269.43 243.93 270.37 236.78 270.35 231.17
  C 270.33 226.51 270.41 221.43 271.04 217.27
  Q 274.68 193.31 294.76 179.27
  Q 297.10 177.64 304.30 174.36
  Q 316.10 171.70 326.91 176.45
  C 331.31 178.38 336.17 180.97 340.30 183.98
  Q 342.89 185.87 344.35 188.37
  Z"
/>
<path fill="currentColor" d="
  M 11.49 242.47
  C 1.69 235.23 5.82 220.56 16.47 216.73
  C 29.40 212.07 44.08 206.50 58.35 203.33
  Q 82.85 197.86 107.88 202.86
  C 115.48 204.38 126.20 207.96 135.76 211.68
  C 151.02 217.63 167.53 221.38 183.48 220.42
  Q 194.99 219.74 210.36 215.44
  C 217.12 213.55 225.18 210.04 231.48 207.49
  C 236.71 205.37 241.90 205.65 246.50 209.06
  Q 253.95 214.57 250.96 224.59
  C 249.45 229.66 246.61 231.80 241.34 233.86
  Q 224.30 240.51 213.33 243.57
  Q 180.10 252.82 147.10 244.63
  Q 138.41 242.48 120.46 235.43
  Q 110.31 231.45 104.47 230.27
  Q 95.32 228.42 87.69 228.13
  C 73.01 227.56 58.16 231.23 44.12 236.60
  Q 30.30 241.90 29.23 242.45
  C 22.33 245.99 17.23 246.71 11.49 242.47
  Z"
/>
</svg>
